64x64/apps/cs-printer.svg

<svg height="64" width="64" xmlns="http://www.w3.org/2000/svg"><path d="m10 37v20.2c0 1.551 1.226 2.8 2.75 2.8h38.5c1.523 0 2.75-1.249 2.75-2.8v-20.2z" opacity=".2"/><rect height="56" opacity=".2" rx="2.824" ry="2.8" transform="matrix(0 -1 -1 0 0 0)" width="24" x="-45" y="-60"/><path d="m12.75 4c-1.524 0-2.75 1.274-2.75 2.857v17.143h44v-17.143c0-1.583-1.227-2.857-2.75-2.857z" fill="#f4f4f7"/><rect fill="#4f4f4f" height="56" rx="2.824" ry="2.8" transform="matrix(0 -1 -1 0 0 0)" width="24" x="-44" y="-60"/><path d="m7 33h50v6h-50z" opacity=".2"/><rect height="5" opacity=".2" rx="1.875" width="5" x="7" y="24"/><rect fill="#76ff03" height="5" rx="1.875" width="5" x="7" y="23"/><path d="m10 36v20.2c0 1.551 1.226 2.8 2.75 2.8h38.5c1.523 0 2.75-1.249 2.75-2.8v-20.2z" fill="#f4f4f7"/><path d="m15 52h29v3h-29zm0-6h24v3h-24zm0-6h34v3h-34z" opacity=".5"/><g fill="#f4f4f7"><path d="m12.75 4c-1.524 0-2.75 1.275-2.75 2.857v1c0-1.582 1.226-2.857 2.75-2.857h38.5c1.523 0 2.75 1.275 2.75 2.857v-1c0-1.582-1.227-2.857-2.75-2.857z" opacity=".2"/><path d="m6.8 20c-1.55 0-2.8 1.26-2.8 2.824v1a2.807 2.807 0 0 1 2.8-2.824h50.4c1.55 0 2.8 1.26 2.8 2.824v-1a2.807 2.807 0 0 0 -2.8-2.824z" opacity=".1"/><path d="m8.875 23a1.87 1.87 0 0 0 -1.875 1.875v1a1.87 1.87 0 0 1 1.875-1.875h1.25a1.87 1.87 0 0 1 1.875 1.875v-1a1.87 1.87 0 0 0 -1.875-1.875z" opacity=".2"/></g></svg>

<svg xmlns="http://www.w3.org/2000/svg" width="64" height="64" version="1"><path style="opacity:.2" d="M10 37v20.2c0 1.551 1.226 2.8 2.75 2.8h38.5c1.523 0 2.75-1.249 2.75-2.8V37z"/><rect style="opacity:.2" width="24" height="56" x="-45" y="-60" rx="2.824" ry="2.8" transform="matrix(0 -1 -1 0 0 0)"/><path style="fill:#f4f4f7" d="M12.75 4C11.226 4 10 5.274 10 6.857V24h44V6.857C54 5.274 52.773 4 51.25 4h-38.5z"/><rect style="fill:#4f4f4f" width="24" height="56" x="-44" y="-60" rx="2.824" ry="2.8" transform="matrix(0 -1 -1 0 0 0)"/><path style="opacity:.2" d="M7 33h50v6H7z"/><rect style="opacity:.2" width="5" height="5" x="7" y="24" rx="1.875" ry="1.875"/><rect style="fill:#76ff03" width="5" height="5" x="7" y="23" rx="1.875" ry="1.875"/><path style="fill:#f4f4f7" d="M10 36v20.2c0 1.551 1.226 2.8 2.75 2.8h38.5c1.523 0 2.75-1.249 2.75-2.8V36z"/><path style="opacity:.5" d="M15 52h29v3H15zM15 46h24v3H15zM15 40h34v3H15z"/><path style="fill:#f4f4f7;opacity:.2" d="M12.75 4C11.226 4 10 5.275 10 6.857v1C10 6.275 11.226 5 12.75 5h38.5C52.773 5 54 6.275 54 7.857v-1C54 5.275 52.773 4 51.25 4h-38.5z"/><path style="fill:#f4f4f7;opacity:.1" d="M6.8 20C5.25 20 4 21.26 4 22.824v1A2.807 2.807 0 0 1 6.8 21h50.4c1.55 0 2.8 1.26 2.8 2.824v-1A2.807 2.807 0 0 0 57.2 20H6.8z"/><path style="fill:#f4f4f7;opacity:.2" d="M8.875 23A1.87 1.87 0 0 0 7 24.875v1A1.87 1.87 0 0 1 8.875 24h1.25A1.87 1.87 0 0 1 12 25.875v-1A1.87 1.87 0 0 0 10.125 23h-1.25z"/></svg>
